!!!COM: Bach, Johann Sebastian
!!!OPR: Joh. Seb. Bachs vierstimmige Choralgesänge
!!!XEN: Four-part Chorales
!!!OTL: 138. Nun preiset alle Gottes Barmherzigkeit
!!!SCT: BWV 391
!!!SCA: Thematisch-systematisches Verzeichnis der musikalischen Werke Johann Sebastian Bach: Bach-Werke-Verzeichnis (Schmieder)
!!!YOR: Bach Gesellschaft Edition xxxix
!!!ENC: Steven Rasmussen
!!!CDT: 1685/3//-1750/7/28/
!!!OCY: Deutschland
!!!YEC: Copyright (c) 1994, 2000 Center for Computer Assisted Research in the Humanities
!!!YEM: Rights to all derivative editions reserved
!!!YEN: United States of America
**kern	**silbe	**kern	**kern	**kern	**silbe
*I:[SOPRANO]	*I:[SOPRANO]	*I:[ALTO]	*I:[TENORE]	*I:[BASSO]	*I:[BASSO]
*>[A,B,B]	*	*>[A,B,B]	*>[A,B,B]	*>[A,B,B]	*
*>A	*	*>A	*>A	*>A	*
*clefG2	*	*clefG2	*clefGv2	*clefF4	*
*k[f#]	*	*k[f#]	*k[f#]	*k[f#]	*
*G:	*	*G:	*G:	*G:	*
*M3/4	*	*M3/4	*M3/4	*M3/4	*
=1-	=1-	=1-	=1-	=1-	=1-
4g	Nun	4d	4B	8GL	.
.	.	.	.	8F#J	.
4g	prei-	4e	4B	4E	.
4a	-set	4f#	4d	4D	.
=2	=2	=2	=2	=2	=2
4b	al-	8gL	4d	4GG	.
.	.	8fnJ	.	.	.
2g;	-le	2e;	2c;	2C;	.
=3	=3	=3	=3	=3	=3
4a	Got-	4fn	4c	4.Fn	.
4a	-tes	4f	4c	.	.
.	.	.	.	8E	.
4b	Barm-	4f	4d	4D	.
=4	=4	=4	=4	=4	=4
2cc	-her-	2g	2e	4C	.
.	.	.	.	4E	.
4b	-zig-	4g	8dL	4G	.
.	.	.	8fnJ	.	.
=5	=5	=5	=5	=5	=5
2.cc;	-keit,	2.g;	2.e;	2.C;	.
=6	=6	=6	=6	=6	=6
4b	lob'	4g	4d	4G	.
4b	ihn	4g	4d	8GL	.
.	.	.	.	8F#J	.
4cc#	mit	4g	4e	4E	.
=7	=7	=7	=7	=7	=7
4dd	Schal-	4f#	4A	2D	.
2a;	-le,	2f#;	2d;	.	.
.	.	.	.	4D;	.
=8	=8	=8	=8	=8	=8
4b	du	4g	4d	4G	.
4cc#	wer-	4g	4A	4A	.
4dd	-te	8f#L	4d	4B	.
.	.	8gJ	.	.	.
=9	=9	=9	=9	=9	=9
2dd	Chri-	4a	8dL	4F#	.
.	.	.	8cJ	.	.
.	.	8gL	4B	4G	.
.	.	8f#J	.	.	.
4cc#	-sten-	8gL	4A	4A	.
.	.	8eJ	.	.	.
=10	=10	=10	=10	=10	=10
2.dd;	-heit!	2.f#;	2.A;	2.D;	.
=11	=11	=11	=11	=11	=11
4a	Er	4f#	4d	4D	.
4a	lÃ¤sst	4f#	4d	4C	.
4b	dich	4g#	4d	4BB	.
=12	=12	=12	=12	=12	=12
4cc	freund-	4.a	4e	4AA	.
4dd	.	.	4d	4BB	.
.	.	8g#	.	.	.
4ee	-lich	8aL	8cL	[4C	-lich
.	.	8gnJ	8BJ	.	.
=13	=13	=13	=13	=13	=13
2dd	zu	4f#	4A	4C]	.
.	.	4g#	4B	4BB	zu
4cc	sich	4a	8cL	4AA	sich
.	.	.	8eJ	.	.
=14	=14	=14	=14	=14	=14
2b	la-	4a	4fn	4D	.
.	.	4g#	8eL	4E	.
.	.	.	8dJ	.	.
4a;	-den,	4e;	4c;	4AA;	.
=15!|:	=15!|:	=15!|:	=15!|:	=15!|:	=15!|:
*>B	*	*>B	*>B	*>B	*
4.ee	freu-	8eL	4g	4.c	.
.	.	8f#J	.	.	.
.	.	4g	8cL	.	.
8dd	-e	.	8dJ	8B	.
4cc	dich,	4a	4e	8AL	.
.	.	.	.	8GJ	.
=16	=16	=16	=16	=16	=16
4.dd	I-	8aL	2d	8F#L	.
.	.	8gJ	.	8EJ	.
.	.	4f#	.	4D	.
8cc	.	.	.	.	.
4b	-sra-	4g	4d	8GL	.
.	.	.	.	8F#J	.
=17	=17	=17	=17	=17	=17
4cc	-el,	4g	4e	4E	.
4cc	sei-	4a	4d	4F#	.
4b	-ner	4g	4d	4G	.
=18	=18	=18	=18	=18	=18
2a	Gna-	4g	4e	4C	.
.	.	4f#	8dL	4D	.
.	.	.	8cJ	.	.
4g;	-den.	4d;	4B;	4GG;	.
==:|!	==:|!	==:|!	==:|!	==:|!	==:|!
*-	*-	*-	*-	*-	*-
!!!RWG: Key is interpreted using the Humdrum key tool.
!!!END: 1994/07/19
!!!EMD: Converted from MuseData to Humdrum Dec 19, 2000, by Andreas Kornstaedt using muse2kern.
!!!EED: Craig Stuart Sapp
!!!EEV: 2024/03/31
!!!ONB: Some non-unicode characters
